src/assets/images/icons/coingecko.svg

<?xml version="1.0" encoding="UTF-8"?>
<svg width="40px" height="40px" viewBox="0 0 40 40" version="1.1" xmlns="http://www.w3.org/2000/svg" xmlns:xlink="http://www.w3.org/1999/xlink">
    <title>coingecko</title>
    <g id="Page-1" stroke="none" stroke-width="1" fill="none" fill-rule="evenodd">
        <g id="coingecko" fill-rule="nonzero">
            <path d="M40,19.9116965 C40.0485655,30.9569576 31.1343913,39.9505707 20.0891349,40 C9.04387851,40.0490235 0.0498948489,31.1352232 0,20.0899662 C-0.0494813791,9.04470927 8.86394076,0.0503508387 19.909193,0 C30.9552745,-0.0487888569 39.9498688,8.86561662 40,19.9116965 L40,19.9116965 Z" id="Path" fill="#8DC63F"></path>
            <path d="M38.493306,19.915911 C38.5395561,30.1293284 30.2976365,38.4466103 20.0842218,38.4933225 C9.87080718,38.5396427 1.5534702,30.2977787 1.50668674,20.084362 C1.46029634,9.87094523 9.70210079,1.55354921 19.9155148,1.5066983 C24.8202598,1.48448532 29.5330145,3.41142593 33.0170006,6.86379777 C36.5009867,10.3161696 38.4708063,15.0111644 38.493306,19.915911 L38.493306,19.915911 Z" id="_Clipping_Path_" fill="#F9E988"></path>
            <path d="M20.3369666,2.70592223 C21.5126563,2.49605335 22.716223,2.49605335 23.8919126,2.70592223 C25.0788672,2.89400739 26.22618,3.27858159 27.286707,3.84384239 C28.3403365,4.42333877 29.2527797,5.20934658 30.1589011,5.95110195 C31.0650225,6.69285731 31.9690366,7.44304171 32.8287983,8.26908746 C33.7054719,9.08126934 34.4707366,10.0059644 35.1046381,11.0190612 C35.7582359,12.0253113 36.2935094,13.1036367 36.6998332,14.232632 C37.4904089,16.4876657 37.7154438,18.9022691 37.3551908,21.2645571 L37.2371843,21.2645571 C36.8901094,19.0077463 36.3096069,16.7930795 35.5050173,14.6561912 C35.1194214,13.5994278 34.6653996,12.5689035 34.1458352,11.5711632 C33.5998024,10.576318 32.9990134,9.61252272 32.346236,8.68421759 C31.6803475,7.74463993 30.8644907,6.92095188 29.9313171,6.24611828 C28.9935868,5.578117 27.9146702,5.14402153 26.8694697,4.73310592 C25.8242692,4.32219031 24.7790687,3.91338195 23.6938303,3.59940028 C22.6085919,3.28541861 21.4980664,3.05151279 20.3411811,2.82392876 L20.3369666,2.70592223 Z" id="_Path_" fill="#FFFFFF"></path>
            <path d="M29.377108,13.3834064 C28.0347839,12.9935634 26.6376712,12.4435686 25.2342367,11.8872521 C25.1541608,11.5332325 24.8401792,11.0928153 24.2080015,10.5554641 C23.2871293,9.7568127 21.5591769,9.7778853 20.0651302,10.1340122 C18.4172536,9.74627641 16.7883424,9.60930454 15.2184344,9.98439674 C2.43790818,13.5035202 9.68687933,22.107461 4.99190615,30.7472252 C5.65990728,32.1633036 12.8604115,40.4406191 23.2787003,38.2132458 C23.2787003,38.2132458 19.7174324,29.6514502 27.7566258,25.542294 C34.2785925,22.1980731 38.992531,16.0069446 29.377108,13.3834064 Z" id="Path" fill="#8BC53F"></path>
            <path d="M30.955445,19.0118967 C30.9580038,19.3259162 30.7709256,19.6104797 30.4816236,19.7326236 C30.1923217,19.8547674 29.8579141,19.790376 29.6346547,19.5695367 C29.4113953,19.3486974 29.3433631,19.0150115 29.4623466,18.7243954 C29.5813301,18.4337793 29.8638378,18.2436107 30.1778664,18.2427354 C30.3829762,18.2416261 30.5801302,18.3220324 30.7259551,18.4662766 C30.8717801,18.6105208 30.9543303,18.8067868 30.955445,19.0118967 L30.955445,19.0118967 Z" id="Path" fill="#FFFFFF"></path>
            <path d="M20.0651302,10.1297976 C20.9965387,10.19723 24.3660459,11.2972194 25.2342367,11.8872521 C24.5156613,9.77999256 22.0733481,9.50604882 20.0651302,10.1297976 Z" id="Path" fill="#009345"></path>
            <path d="M20.9522863,15.4443062 C20.9522863,17.4227787 19.3484178,19.0266475 17.3699459,19.0266475 C15.3914739,19.0266475 13.7876055,17.4227787 13.7876055,15.4443062 C13.7876055,13.4658338 15.3914739,11.861965 17.3699459,11.861965 C18.3200416,11.861965 19.2312239,12.2393892 19.903043,12.9112085 C20.5748622,13.5830278 20.9522863,14.4942103 20.9522863,15.4443062 Z" id="Path" fill="#FFFFFF"></path>
            <path d="M19.8923358,15.4759151 C19.8931874,16.4937609 19.2807081,17.4118571 18.3405859,17.8019607 C17.4004638,18.1920642 16.317913,17.9773206 15.5978858,17.2578963 C14.8778585,16.5384719 14.662208,15.4561011 15.0515236,14.5156522 C15.4408392,13.5752034 16.3584217,12.9619545 17.3762676,12.9619545 C18.7645501,12.9631143 19.8900119,14.0876338 19.8923358,15.4759151 L19.8923358,15.4759151 Z" id="Path" fill="#58595B"></path>
            <path d="M33.8529262,20.5881268 C30.955445,22.6300613 27.6596918,24.1704681 22.9857912,24.1704681 C20.7984563,24.1704681 20.3559319,21.8524826 18.9103522,22.9861882 C18.1622753,23.5741136 15.5387377,24.8827218 13.442015,24.7900024 C11.3452922,24.697283 7.96314143,23.4645361 7.02541114,19.0076822 C6.65242629,23.4645361 6.46066572,26.7476465 4.78750203,30.5112121 C8.12118585,35.8489005 16.0676598,39.9643785 23.2787003,38.1942804 C22.5053362,32.7828379 27.2340255,27.4809728 29.8997082,24.7689298 C30.906978,23.7426944 32.8498709,22.0653158 33.8529262,20.5796978 L33.8529262,20.5881268 Z" id="Path" fill="#8BC53F"></path>
            <path d="M33.7391342,20.7229914 C32.8160262,21.5168695 31.7860676,22.1772633 30.6793941,22.6848501 C29.5762879,23.2090019 28.4262653,23.62809 27.2445618,23.9365623 C26.0644967,24.2421149 24.8296429,24.4718062 23.5800383,24.3580142 C22.3304337,24.2442222 21.0513274,23.8185557 20.2273891,22.8829325 L20.2674271,22.8365728 C21.2873404,23.496145 22.4526547,23.7279436 23.6158617,23.7616597 C24.7968637,23.7959494 25.9779867,23.6976992 27.1370916,23.4687506 C28.3080946,23.2246885 29.4537848,22.8719513 30.5592803,22.4151209 C31.6826501,21.9861364 32.7402687,21.4016441 33.7012036,20.678739 L33.7391342,20.7229914 Z" id="Path" fill="#58595B"></path>
        </g>
    </g>
</svg>

<svg xmlns="http://www.w3.org/2000/svg" width="40" height="40"><g fill="none" fill-rule="nonzero"><path fill="#8DC63F" d="M40 19.912C40.049 30.957 31.134 39.95 20.09 40 9.043 40.049.05 31.135 0 20.09S8.864.05 19.91 0C30.954-.049 39.95 8.866 40 19.912"/><path fill="#F9E988" d="M38.493 19.916c.047 10.213-8.195 18.53-18.409 18.577S1.554 30.298 1.507 20.084 9.702 1.554 19.916 1.507a18.494 18.494 0 0 1 18.577 18.409"/><path fill="#FFF" d="M20.337 2.706c1.176-.21 2.38-.21 3.555 0 1.187.188 2.334.573 3.395 1.138 1.053.58 1.966 1.365 2.872 2.107s1.81 1.492 2.67 2.318a13.5 13.5 0 0 1 2.276 2.75 15.6 15.6 0 0 1 1.595 3.214c.79 2.255 1.015 4.67.655 7.032h-.118a33 33 0 0 0-1.732-6.609 26 26 0 0 0-1.36-3.085 31 31 0 0 0-1.799-2.887 10.5 10.5 0 0 0-2.415-2.438c-.937-.668-2.016-1.102-3.062-1.513s-2.09-.82-3.175-1.134-2.196-.547-3.353-.775z"/><path fill="#8BC53F" d="M29.377 13.383c-1.342-.39-2.74-.94-4.143-1.496-.08-.354-.394-.794-1.026-1.332-.92-.798-2.649-.777-4.143-.421-1.648-.388-3.277-.525-4.847-.15-12.78 3.52-5.531 12.123-10.226 20.763.668 1.416 7.868 9.694 18.287 7.466 0 0-3.562-8.562 4.478-12.67 6.522-3.345 11.236-9.536 1.62-12.16"/><path fill="#FFF" d="M30.955 19.012a.775.775 0 1 1-1.55.013.775.775 0 0 1 1.55-.013"/><path fill="#009345" d="M20.065 10.13c.932.067 4.301 1.167 5.17 1.757-.72-2.107-3.162-2.381-5.17-1.757"/><path fill="#FFF" d="M20.952 15.444a3.582 3.582 0 1 1-7.164 0 3.582 3.582 0 0 1 7.164 0"/><path fill="#58595B" d="M19.892 15.476a2.516 2.516 0 1 1-5.032.004 2.516 2.516 0 0 1 5.032-.004"/><path fill="#8BC53F" d="M33.853 20.588c-2.898 2.042-6.193 3.582-10.867 3.582-2.188 0-2.63-2.318-4.076-1.184-.748.588-3.371 1.897-5.468 1.804s-5.479-1.325-6.417-5.782c-.373 4.457-.564 7.74-2.237 11.503 3.333 5.338 11.28 9.453 18.49 7.683-.773-5.411 3.956-10.713 6.622-13.425 1.007-1.026 2.95-2.704 3.953-4.19z"/><path fill="#58595B" d="M33.74 20.723a13 13 0 0 1-3.06 1.962 19.5 19.5 0 0 1-3.435 1.252c-1.18.305-2.415.535-3.665.421s-2.529-.54-3.353-1.475l.04-.046c1.02.66 2.186.89 3.349.925a15.8 15.8 0 0 0 3.521-.293 19.2 19.2 0 0 0 3.422-1.054 12.9 12.9 0 0 0 3.142-1.736z"/></g></svg>
